X: 3819
T: Black Cock O' Whickham, The
R: reel
M: 4/4
K: Gmajor
|:d2dc BGGB|dedc B2Bg|dedc BG~G2|1 AGAB cABc:|2 AGAB cdga||
bgdg Bgdg|bgfa ~g3a|bgdg BgdB|AGAB cdga|
bgdg Bgdg|bgfa ~g3a|bgaf gedB|AGAB cABc||

